client/resources/assets/svg/nav-open.svg

<svg xmlns="http://www.w3.org/2000/svg" xmlns:xlink="http://www.w3.org/1999/xlink" width="22" height="18" viewBox="0 0 22 18">
  <defs>
    <path id="nav-open-a" d="M1.19016373,0 L22.8098363,0 C23.4671455,0 24,0.443864822 24,1 C24,1.55228475 23.4536333,2 22.8098363,2 L1.19016373,2 C0.532854453,2 0,1.55613518 0,1 C0,0.44771525 0.546366692,0 1.19016373,0 Z M0,17 C0,16.4477153 0.546366692,16 1.19016373,16 L22.8098363,16 C23.4671455,16 24,16.4438648 24,17 C24,17.5522847 23.4536333,18 22.8098363,18 L1.19016373,18 C0.532854453,18 0,17.5561352 0,17 L0,17 Z M0,9 C0,8.44771525 0.546366692,8 1.19016373,8 L22.8098363,8 C23.4671455,8 24,8.44386482 24,9 C24,9.55228475 23.4536333,10 22.8098363,10 L1.19016373,10 C0.532854453,10 0,9.55613518 0,9 L0,9 Z"/>
    <filter id="nav-open-b" width="116.7%" height="122.2%" x="-8.3%" y="-11.1%" filterUnits="objectBoundingBox">
      <feComposite in="shadowOffsetInner1" in2="SourceAlpha" k2="-1" k3="1" operator="arithmetic" result="shadowInnerInner1"/>
      <feColorMatrix in="shadowInnerInner1" values="0 0 0 0 0   0 0 0 0 0   0 0 0 0 0  0 0 0 0.5 0"/>
    </filter>
  </defs>
  <g fill="none" fill-rule="evenodd" transform="translate(-1)">
    <use fill="#4c8ba6" xlink:href="#nav-open-a"/>
    <use fill="#4c8ba6" filter="url(#nav-open-b)" xlink:href="#nav-open-a"/>
  </g>
</svg>

<svg xmlns="http://www.w3.org/2000/svg" xmlns:xlink="http://www.w3.org/1999/xlink" width="22" height="18"><defs><path id="a" d="M1.19 0h21.62C23.467 0 24 .444 24 1c0 .552-.546 1-1.19 1H1.19C.533 2 0 1.556 0 1c0-.552.546-1 1.19-1zM0 17c0-.552.546-1 1.19-1h21.62c.657 0 1.19.444 1.19 1 0 .552-.546 1-1.19 1H1.19C.533 18 0 17.556 0 17zm0-8c0-.552.546-1 1.19-1h21.62c.657 0 1.19.444 1.19 1 0 .552-.546 1-1.19 1H1.19C.533 10 0 9.556 0 9z"/><filter id="b" width="116.7%" height="122.2%" x="-8.3%" y="-11.1%" filterUnits="objectBoundingBox"><feComposite in="shadowOffsetInner1" in2="SourceAlpha" k2="-1" k3="1" operator="arithmetic" result="shadowInnerInner1"/><feColorMatrix in="shadowInnerInner1" values="0 0 0 0 0 0 0 0 0 0 0 0 0 0 0 0 0 0 0.5 0"/></filter></defs><g fill="#4c8ba6" fill-rule="evenodd" transform="translate(-1)"><use xlink:href="#a"/><use filter="url(#b)" xlink:href="#a"/></g></svg>
